assets/img/hero-img.svg

<svg xmlns="http://www.w3.org/2000/svg" width="552.94084" height="367.92049" viewBox="0 0 552.94084 367.92049" xmlns:xlink="http://www.w3.org/1999/xlink"><path d="M213.77996,33.23929h-67.08496c-2.30142,0-4.17392-1.87249-4.17392-4.17392s1.8725-4.17392,4.17392-4.17392h67.08496c2.30142,0,4.17392,1.87249,4.17392,4.17392s-1.8725,4.17392-4.17392,4.17392Z" fill="#e6e7e8"/><path d="M266.13329,47.3664h-119.43829c-2.30142,0-4.17392-1.87249-4.17392-4.17392s1.8725-4.17392,4.17392-4.17392h119.43829c2.30142,0,4.17392,1.87249,4.17392,4.17392s-1.8725,4.17392-4.17392,4.17392h0Z" fill="#e6e7e8"/><path d="M266.13329,61.3664h-119.43829c-2.30142,0-4.17392-1.87249-4.17392-4.17392s1.8725-4.17392,4.17392-4.17392h119.43829c2.30142,0,4.17392,1.87249,4.17392,4.17392s-1.8725,4.17392-4.17392,4.17392h0Z" fill="#e6e7e8"/><path d="M278.78484,134.01856v-2c-23.08527,0-43.24463-18.85779-48.60437-45.12573l8.69812,2.23767c-4.20703-3.98584-8.45721-10.65851-11.09375-16.11194-1.55719,5.85443-4.46582,13.21167-7.84137,17.92249l8.22992-3.89856c5.47247,27.32849,26.49829,46.97607,50.61145,46.97607Z" fill="#3f3d56"/><path d="M270.05257,57.47993c0,2.20557-1.79443,4-4,4h-52c-2.20557,0-4-1.79443-4-4s1.79443-4,4-4h52c2.20557,0,4,1.79443,4,4Z" fill="#f85a40"/><g><g><path d="M35.90386,280.29741c-.7916-2.75647-2.14717-5.10757-3.76107-6.78473l-5.86366-26.72989-12.78116,3.13107,7.32422,26.77768c-.48165,2.26559-.38528,4.97031,.40632,7.72675,1.8084,6.29712,6.55959,10.4794,10.61208,9.34143,4.0525-1.13797,5.87168-7.16522,4.06328-13.46231h-.00001Z" fill="#ffb6b6"/><path d="M34.13565,104.95641s-13.80493-.47648-21.80493,8.52352C3.16516,124.67631-3.09991,168.5471,1.6033,171.50123l12.74267,90.48536,18.17083-2.49686-4.66349-108.56891,6.28234-45.96446v.00005Z" fill="#f85a40"/></g><polygon points="127.33072 257.47993 124.02328 367.91723 76.52328 367.91723 74.60332 325.34722 66.16331 367.91723 15.25333 367.91723 21.60331 294.73723 28.1633 279.34722 32.60331 268.91723 127.33072 257.47993" fill="#014d44"/><path d="M89.60332,86.91724l-33-2-11.00001,14.00001c-9.50027,2.03415-18.08116,4.66021-24.00001,9,1.41608,41.9259-1.69464,96.44153,11.00003,107l-11.2726,79.56269s4.54595-3.89469,12.1397-2.51969c2.62343,.47503,5.79032,6.38486,9.01396,6.74297,24.76969,2.75164,64.93738-.07811,84.84634-41.22328l-7.7274-59.56268,1.99999-87.00001c-6.25235-4.94229-14.02573-8.15424-23-10l-8.99999-13.99999v-.00002Z" fill="#f85a40"/><g><path d="M153.1336,62.57842c.35806,3.46696-.09662,6.72734-1.14365,9.34143l5.49713,32.81189-15.68973,2.15901-3.88701-33.51685c-1.55922-2.34492-2.67064-5.44357-3.02869-8.91052-.81798-7.92024,2.60477-14.76279,7.64491-15.28331s9.78906,5.47809,10.60704,13.39833v.00002h-.00002Z" fill="#ffb6b6"/><path d="M100.97056,113.42402c-1.64275,2.4238-1.1851,5.14828-1.57732,8.42166-1.66507,13.89642,24.96442,54.95995,43.39029,59.68797,2.41791,.62042,3.7953,3.22858,6.23576,3.75311h.00002c7.22955,1.55386,13.96072-4.18445,13.5705-11.56882l-5.00511-94.70802-21.02719,7.17204,1.34588,49.17056c-.13403-10.18652-9.48758-20.55853-16.57266-24.87259,0,0-14.351-5.92216-20.36016,2.94408Z" fill="#f85a40"/></g><g><circle cx="76.52788" cy="53.26168" r="29.06773" fill="#ffb6b6"/><path d="M103.60332,31.91723c-.25,.06006,3.82632-3.91316,4-4,4-2-.11005,17.55-3,16.99999-7.11005-1.35004-10.17999-4.03003-12.94,2.65997-.77002,1.85999-1.25,3.96002-2.75,5.29004-2.06,1.81-5.47998,1.65997-7.15997,3.81995-1.35004,1.74005-.96002,4.30005,.03998,6.26001,1,1.97003,2.52002,3.64001,3.42999,5.65002,1.02002,2.26001-3.33002,9.45001-4.98999,13.48999v.01001l-.00987,.02367c-.44109,1.05969-1.48927-1.99294-2.59592-2.29765-1.32423-.36464-3.27507,2.76221-5.38422,2.19397-.01001,0-.02002-.01001-.03003-.01001-2.01001-.56-4.25-1.15997-6.46997-1.76001h-.01001c-6.25-1.69995-7.83002,.74005-8.13,.67004l-3.88-4.06c-1.33156-.9695-1.18106-4.0994-2.12-4.94-.76788-.68747-2.68219,.90109-3.24638,.2403-2.76637-3.24001-3.40286-6.48122-5.03365-12.88031-1.48999-5.84998-4.57996-23.35999,1.77002-24.15002,5.98999-.75,1.60999-9.08997,7.64001-8.77997-.35999-1.52002,.31-3.15002,1.40002-4.27002,1.07996-1.13,2.51996-1.83002,3.96997-2.42999,7.15002-2.91998,5.96002-5.42993,13.5-3.72998,.75-1.04999,10.36738-3.78733,11.72743-3.43729,.09998,.01996-2.09743,4.28733,3.27257,3.43729-.20001,1.23004,2.72743-1.43729,3,3,5.72743-3.43729,8.81,4.78998,9,6,.25,1.51001-2.03003,.73999-.51001,.96997,.90002,.14001,2.44,1.97003,2.29004,2.88,.64996-.88,1.29999-1.75,1.95996-2.63,.12,.01001,.22998,.03003,.35004,.04999,3.03998,.58002-.44522,10.51796-.32001,7.42004,.22998-5.69,4.25995-2.35999,1.22998-1.69h.00002Z" fill="#014d44"/></g></g><path d="M474.36993,25.95775c-1.07404,8.8273-2.2475,17.64251-3.52008,26.4434-.51691,3.57451-1.06342,7.19449-2.50153,10.50752-.98163,2.26144-2.35657,4.32654-3.72394,6.37788-1.61578,2.42407-3.25836,4.87904-5.45282,6.7952s-5.04492,3.26164-7.94946,3.03645c7.70642-5.18758,12.8858-13.96159,13.70416-23.21526,.3847-4.34975-.14313-8.72215-.24438-13.08771-.10126-4.36555,.26416-8.88307,2.27832-12.75752s5.99286-6.97589,10.35815-6.86575l-2.94849,2.76579h.00006Z" fill="#014d44"/><g><path d="M396.26787,214.23064h0c-6.27057,5.08578-13.97736,5.97379-17.21375,1.98346s-.77679-11.3479,5.49371-16.43365c2.74481-2.2262,5.76483-3.64789,8.5647-4.20834l26.84027-21.21652,9.68811,12.80746-27.48755,19.55594c-1.12628,2.62384-3.14075,5.28543-5.88556,7.51163h-.00006l.00012,.00003Z" fill="#a0616a"/><path d="M401.33776,185.42794l39.99296-37.948,4-3s22.95754-22.36648,28.9023-22.87869c2.51782-.21648,5.03571,.41119,7.1568,1.78918,3.42688,2.22208,5.20166,5.87984,5.20166,9.56644,0,3.08057-1.24091,6.17563-3.78046,8.45538l-36.61359,32.86926-15.57611,13.98169-19.37097,17.39417-1.96954-4.01126-6.659-13.5921-1.28418-2.62607v.00003l.00012-.00003Z" fill="#f85a40"/></g><path d="M486.85284,159.74625l-40.04333,12.26463c6.7041,1.88855,9.51105,42.73956,3.27209,44.00848,0,0,66.36469,4.72018,62.74347,0-4.41431-5.754,1.50592-43.99176,4.32867-44.00848l-30.3009-12.26463Z" fill="#a0616a"/><path d="M540.13634,367.92046l-3.5-42.23999c0-15.10999-.97998-28.76001-2.54999-40.92999-6.28998-48.85001-22.06-73.88998-22.06-73.88998h-59c-.08002,.09-.15997,.16-.23999,.25l-.01001,.01001c-13.91998,14.63-21.15997,51.41998-24.38,73.63-1.53003,10.57001-2.15002,17.84-2.15002,17.84l-5.77002,51.28,4.16998,14.04999h34.33002l-.53998-3.01001,22.09003-80.16,.27002-.98001,.23999,.98001,20.47998,83.17001h38.62v-.00003Z" fill="#014d44"/><path d="M454.23546,135.37935l12.46728-25.16714,10.50494-18.28423,8.49506-8.65739h23.24878l2.16437,8.65739,12.98608,7.21449,4.59332,36.07251-16.36458,78.26495c-19.47919-15.87189-59.62797-20.26772-59.62797-20.26772l-6.50531-18.93073-4.2998-22.80504-.51947-2.72707,12.8573-13.37006h0v.00003Z" fill="#f85a40"/><g><path d="M452.73968,180.90541h0c-8.07043-.229-14.49464-4.57792-14.34891-9.71369,.14571-5.13571,6.8062-9.11345,14.8766-8.88439,3.53272,.10023,6.74987,.99004,9.23871,2.38963l34.18456,1.39931-.99826,16.02791-33.59332-3.08063c-2.5642,1.25613-5.82665,1.96211-9.35933,1.86183h-.00001l-.00004,.00004Z" fill="#a0616a"/><path d="M496.45654,126.19796l32.24621,32.01426-56.16791,5.7518-13.05301,18.36017,78.2884,2.59582c7.06351,2.51549,14.58749-2.36608,15.16884-9.84155v-.00003c.19626-2.52421-15.8874-66.57211-25.62415-72.51812-11.41186-6.96901-30.85838,23.63765-30.85838,23.63765l6.36944-10.60332-6.36944,10.60332Z" fill="#f85a40"/></g><circle cx="492.52648" cy="51.43303" r="26.33295" transform="translate(433.15935 543.06627) rotate(-89.07621)" fill="#a0616a"/><path d="M550.33072,133.47993c-.65997,2.5-5.79999,3.78998-7,7-3.82001,2.17999-1.75-15.63-3.28998-16.79999-1.19-.89001-1.51001,1.25995-1.78003-.59003-1.02002-6.94-7.69-5.39001-12.63-6.51001-.56-1.08997-.98999-2.14996-1.26996-3.17999-.5-1.85999-2.78003-2.51001-4.13-1.14001-.61005-.53998-1.05005-2.45001-1.48004-4.35999-.31-1.39001-.62-2.77997-.97998-3.65997l-3.44-7.76001,1.10999,5.77997c-2.25-.81-4.51996,.03003-5.82996-2.75-1.68005-3.57001-2.35004-7.75-1.13-11.5,1.10999-3.39996,2.97998-10.20996,5.08997-15.84998-2.39001,1.72998-5.26001,2.98999-8.58997,3.62,1.17999-2.23999,2.38-4.52002,2.88-7.01001,.48999-2.48999,.18994-5.26001-1.39001-7.23999-1.29999-1.63-3.22003-1.22003-4.84003-2.53003-1.26001-1.01996-2.34998-3.62994-3.10999-5.06,3.23999,10.77002,5.69,22.21002,1.57001,32.49005-2.85004,7.12-8.85004,12.90997-16.04999,15.53998,3.82996-2.73999,7.57001-5.66003,10.44-9.38,3.06995-3.98999,5.06995-9.03003,4.45996-14.03003-.95996-7.84998-15.51996-32.67999-17.31-37.56,.98004,4.77002,.60004,8.49005-1.97998,10.54004-.66998-6.91998-8.21002-6.29004-12.32001-9.06,0,0-3.17999-17.97003,4.28003-18.08002,3.59998-.04999,7.37-8.51001,10.63995-10.02002,5.22003-2.40997,8.42004-.76996,14.21002-.58997,5.77997,.16998,11.33002,2.65997,14.85999,7.22998,1.85004,2.39001,2.53003,.48999,5.31,1.97998,2.64001,1.41003,4.41998,.10004,7.41003,.19,5.98999,.16003,11.79999,3.36005,15.15997,8.31,3.35999,4.96002,5.42999,4.5,4.09998,12.17004-.01996,.08997-.01996,.26996,0,.53998,.73004,12.08002-1.13995,24.19-5.92999,35.31-1.47998,3.41998,5.75938,6.94984,5.74938,11.21986-.01001,4.96002-7.99938,9.48015-7.25932,11.60015,2.12,10.21002,14.02997,7.94,11.21997,25.03003-.22998,1.38995,3.69,4.43994,3.25,6.10999Z" fill="#014d44"/><path d="M477.37841,102.21068c.21997-.06995,.44-.14996,.65997-.23999-.27997,.20003-.54999,.39001-.82996,.59003l.16998-.35004Z" fill="#014d44"/><path d="M514.47042,17.96025c-2.8645,.42569-5.77454-4.32687-4.14813-10.91754,3.54431,5.41956,5.35599,11.52063,5.64108,18.22217l-1.91016,.5918,.4172-7.89643Z" fill="#f85a40"/><path d="M529.10567,11.80848c-1.95477,6.92664-11.88171,11.56229-13.63525,9.15176l-.20065,4.13065-1.22723-1.57885c3.5603-5.29441,8.41327-9.35589,15.06305-11.70356h.00009Z" fill="#f85a40"/><g><path d="M311.12087,198.59383c0-2.30142,1.8725-4.17392,4.17392-4.17392h67.08496c2.30142,0,4.17392,1.8725,4.17392,4.17392s-1.8725,4.17392-4.17392,4.17392h-67.08496c-2.30142,0-4.17392-1.8725-4.17392-4.17392Z" fill="#e6e7e8"/><path d="M311.12087,226.59383c0-2.30142,1.8725-4.17392,4.17392-4.17392h67.08496c2.30142,0,4.17392,1.8725,4.17392,4.17392s-1.8725,4.17392-4.17392,4.17392h-67.08496c-2.30142,0-4.17392-1.8725-4.17392-4.17392Z" fill="#e6e7e8"/><path d="M262.94143,216.89486c-2.30142,0-4.17392-1.8725-4.17392-4.17392s1.8725-4.17392,4.17392-4.17392h119.43829c2.30142,0,4.17392,1.8725,4.17392,4.17392s-1.8725,4.17392-4.17392,4.17392h-119.43829Z" fill="#e6e7e8"/></g><g><path d="M254.06191,176.94701l-8.22992-3.89856c3.37555,4.71082,6.28418,12.06805,7.84137,17.92249,2.63654-5.45343,6.88672-12.1261,11.09375-16.11194l-8.69812,2.23767c5.35974-26.26794,25.5191-45.12573,48.60437-45.12573v-2c-24.11316,0-45.13898,19.64758-50.61145,46.97607Z" fill="#3f3d56"/><path d="M291.94109,216.97094h-52c-2.20557,0-4-1.79443-4-4s1.79443-4,4-4h52c2.20557,0,4,1.79443,4,4s-1.79443,4-4,4Z" fill="#f85a40"/></g><circle cx="291.67334" cy="132.65737" r="15.65737" transform="translate(114.00804 399.31512) rotate(-80.78253)" fill="#3f3d56"/><circle cx="206.67334" cy="9.65737" r="9.65737" fill="#e6e7e8"/><circle cx="319.67334" cy="176.65737" r="9.65737" fill="#e6e7e8"/></svg>

<svg width="553" height="368" viewBox="0 0 553 368" fill="none" xmlns="http://www.w3.org/2000/svg">
<g clip-path="url(#clip0_1_2)">
<path d="M213.78 33.2393H146.695C144.394 33.2393 142.521 31.3668 142.521 29.0654C142.521 26.764 144.394 24.8915 146.695 24.8915H213.78C216.081 24.8915 217.954 26.764 217.954 29.0654C217.954 31.3668 216.081 33.2393 213.78 33.2393Z" fill="#E6E7E8"/>
<path d="M266.133 47.3664H146.695C144.394 47.3664 142.521 45.4939 142.521 43.1925C142.521 40.891 144.394 39.0186 146.695 39.0186H266.133C268.435 39.0186 270.307 40.891 270.307 43.1925C270.307 45.4939 268.435 47.3664 266.133 47.3664Z" fill="#E6E7E8"/>
<path d="M266.133 61.3664H146.695C144.394 61.3664 142.521 59.4939 142.521 57.1925C142.521 54.891 144.394 53.0186 146.695 53.0186H266.133C268.435 53.0186 270.307 54.891 270.307 57.1925C270.307 59.4939 268.435 61.3664 266.133 61.3664Z" fill="#E6E7E8"/>
<path d="M278.785 134.019V132.019C255.7 132.019 235.54 113.161 230.18 86.8928L238.879 89.1305C234.672 85.1447 230.421 78.472 227.785 73.0186C226.228 78.873 223.319 86.2302 219.943 90.941L228.173 87.0425C233.646 114.371 254.672 134.019 278.785 134.019Z" fill="#222222"/>
<path d="M270.053 57.4799C270.053 59.6855 268.258 61.4799 266.053 61.4799H214.053C211.847 61.4799 210.053 59.6855 210.053 57.4799C210.053 55.2743 211.847 53.4799 214.053 53.4799H266.053C268.258 53.4799 270.053 55.2743 270.053 57.4799Z" fill="#FA2606"/>
<path d="M35.9039 280.297C35.1123 277.541 33.7567 275.19 32.1428 273.513L26.2791 246.783L13.498 249.914L20.8222 276.692C20.3405 278.957 20.4369 281.662 21.2285 284.418C23.0369 290.715 27.7881 294.898 31.8406 293.76C35.8931 292.622 37.7123 286.594 35.9039 280.297Z" fill="#FFB6B6"/>
<path d="M34.1357 104.956C34.1357 104.956 20.3307 104.48 12.3307 113.48C3.16516 124.676 -3.09991 168.547 1.6033 171.501L14.346 261.987L32.5168 259.49L27.8533 150.921L34.1357 104.956Z" fill="#FA2606"/>
<path d="M127.331 257.48L124.023 367.917H76.5233L74.6033 325.347L66.1633 367.917H15.2533L21.6033 294.737L28.1633 279.347L32.6033 268.917L127.331 257.48Z" fill="#222222"/>
<path d="M89.6033 86.9172L56.6033 84.9172L45.6033 98.9172C36.103 100.951 27.5222 103.577 21.6033 107.917C23.0194 149.843 19.9087 204.359 32.6033 214.917L21.3307 294.48C21.3307 294.48 25.8767 290.585 33.4704 291.96C36.0939 292.435 39.2608 298.345 42.4844 298.703C67.2541 301.455 107.422 298.625 127.331 257.48L119.603 197.917L121.603 110.917C115.351 105.975 107.578 102.763 98.6033 100.917L89.6033 86.9172Z" fill="#FA2606"/>
<path d="M153.134 62.5784C153.492 66.0453 153.037 69.3057 151.99 71.9198L157.487 104.732L141.797 106.891L137.91 73.3739C136.351 71.0289 135.24 67.9303 134.882 64.4633C134.064 56.5431 137.486 49.7005 142.527 49.18C147.567 48.6595 152.316 54.6581 153.134 62.5784Z" fill="#FFB6B6"/>
<path d="M100.971 113.424C99.3278 115.848 99.7855 118.572 99.3932 121.846C97.7282 135.742 124.358 176.806 142.784 181.534C145.201 182.154 146.579 184.762 149.019 185.287C156.249 186.841 162.98 181.102 162.59 173.718L157.585 79.0099L136.558 86.1819L137.903 135.352C137.769 125.166 128.416 114.794 121.331 110.48C121.331 110.48 106.98 104.558 100.971 113.424Z" fill="#FA2606"/>
<path d="M76.5279 82.3294C92.5816 82.3294 105.596 69.3153 105.596 53.2616C105.596 37.208 92.5816 24.1939 76.5279 24.1939C60.4742 24.1939 47.4602 37.208 47.4602 53.2616C47.4602 69.3153 60.4742 82.3294 76.5279 82.3294Z" fill="#FFB6B6"/>
<path d="M103.603 31.9172C103.353 31.9773 107.43 28.004 107.603 27.9172C111.603 25.9172 107.493 45.4672 104.603 44.9172C97.4933 43.5672 94.4233 40.8872 91.6633 47.5772C90.8933 49.4372 90.4133 51.5372 88.9133 52.8672C86.8533 54.6772 83.4333 54.5272 81.7534 56.6872C80.4033 58.4272 80.7933 60.9872 81.7933 62.9472C82.7933 64.9172 84.3134 66.5872 85.2233 68.5972C86.2433 70.8572 81.8933 78.0472 80.2333 82.0872V82.0972L80.2235 82.1209C79.7824 83.1805 78.7342 80.1279 77.6275 79.8232C76.3033 79.4586 74.3525 82.5854 72.2433 82.0172C72.2333 82.0172 72.2233 82.0072 72.2133 82.0072C70.2033 81.4472 67.9633 80.8472 65.7433 80.2472H65.7333C59.4833 78.5472 57.9033 80.9872 57.6033 80.9172L53.7233 76.8572C52.3918 75.8877 52.5423 72.7578 51.6033 71.9172C50.8354 71.2297 48.9211 72.8183 48.3569 72.1575C45.5906 68.9175 44.9541 65.6763 43.3233 59.2772C41.8333 53.4272 38.7433 35.9172 45.0933 35.1272C51.0833 34.3772 46.7033 26.0372 52.7333 26.3472C52.3733 24.8272 53.0433 23.1972 54.1333 22.0772C55.2133 20.9472 56.6533 20.2472 58.1033 19.6472C65.2533 16.7272 64.0633 14.2173 71.6033 15.9172C72.3533 14.8672 81.9707 12.1299 83.3307 12.4799C83.4307 12.4999 81.2333 16.7672 86.6033 15.9172C86.4033 17.1472 89.3307 14.4799 89.6033 18.9172C95.3307 15.4799 98.4133 23.7072 98.6033 24.9172C98.8533 26.4272 96.5733 25.6572 98.0933 25.8872C98.9933 26.0272 100.533 27.8572 100.383 28.7672C101.033 27.8872 101.683 27.0172 102.343 26.1372C102.463 26.1472 102.573 26.1672 102.693 26.1872C105.733 26.7672 102.248 36.7051 102.373 33.6072C102.603 27.9172 106.633 31.2472 103.603 31.9172Z" fill="#222222"/>
<path d="M474.37 25.9577C473.296 34.785 472.122 43.6002 470.85 52.4011C470.333 55.9756 469.786 59.5956 468.348 62.9086C467.367 65.1701 465.992 67.2352 464.624 69.2865C463.009 71.7106 461.366 74.1656 459.172 76.0817C456.977 77.9979 454.127 79.3434 451.222 79.1182C458.929 73.9306 464.108 65.1566 464.926 55.9029C465.311 51.5532 464.783 47.1808 464.682 42.8152C464.581 38.4497 464.946 33.9321 466.96 30.0577C468.974 26.1832 472.953 23.0818 477.318 23.1919L474.37 25.9577Z" fill="#222222"/>
<path d="M396.268 214.231C389.997 219.316 382.29 220.204 379.054 216.214C375.818 212.224 378.277 204.866 384.548 199.78C387.293 197.554 390.313 196.133 393.113 195.572L419.953 174.356L429.641 187.163L402.153 206.719C401.027 209.343 399.013 212.004 396.268 214.231Z" fill="#A0616A"/>
<path d="M401.338 185.428L441.331 147.48L445.331 144.48C445.331 144.48 468.288 122.113 474.233 121.601C476.751 121.385 479.269 122.012 481.39 123.39C484.817 125.613 486.592 129.27 486.592 132.957C486.592 136.037 485.351 139.133 482.811 141.412L446.197 174.282L430.621 188.263L411.25 205.657L409.281 201.646L402.622 188.054L401.338 185.428Z" fill="#FA2606"/>
<path d="M486.853 159.746L446.81 172.011C453.514 173.899 456.321 214.75 450.082 216.019C450.082 216.019 516.446 220.74 512.825 216.019C508.411 210.265 514.331 172.028 517.154 172.011L486.853 159.746Z" fill="#A0616A"/>
<path d="M540.136 367.92L536.636 325.68C536.636 310.57 535.656 296.92 534.086 284.75C527.796 235.9 512.026 210.861 512.026 210.861H453.026C452.946 210.951 452.866 211.021 452.786 211.111L452.776 211.121C438.856 225.751 431.616 262.54 428.396 284.751C426.866 295.321 426.246 302.591 426.246 302.591L420.476 353.871L424.646 367.921H458.976L458.436 364.91L480.526 284.75L480.796 283.77L481.036 284.75L501.516 367.921L540.136 367.92Z" fill="#222222"/>
<path d="M454.235 135.379L466.703 110.212L477.208 91.928L485.703 83.2706H508.952L511.116 91.928L524.102 99.1425L528.695 135.215L512.331 213.48C492.851 197.608 452.703 193.212 452.703 193.212L446.197 174.281L441.898 151.476L441.378 148.749L454.235 135.379Z" fill="#FA2606"/>
<path d="M452.74 180.905C444.669 180.676 438.245 176.327 438.391 171.192C438.536 166.056 445.197 162.078 453.267 162.307C456.8 162.408 460.017 163.297 462.506 164.697L496.691 166.096L495.692 182.124L462.099 179.044C459.535 180.3 456.272 181.006 452.74 180.905Z" fill="#A0616A"/>
<path d="M496.457 126.198L528.703 158.212L472.535 163.964L459.482 182.324L537.77 184.92C544.834 187.436 552.358 182.554 552.939 175.078C553.135 172.554 537.052 108.506 527.315 102.56C515.903 95.5913 496.457 126.198 496.457 126.198Z" fill="#FA2606"/>
<path d="M518.856 51.8576C519.09 37.3162 507.492 25.338 492.951 25.1035C478.41 24.869 466.431 36.4671 466.197 51.0085C465.962 65.5499 477.56 77.5281 492.102 77.7626C506.643 77.997 518.621 66.399 518.856 51.8576Z" fill="#A0616A"/>
<path d="M550.331 133.48C549.671 135.98 544.531 137.27 543.331 140.48C539.511 142.66 541.581 124.85 540.041 123.68C538.851 122.79 538.531 124.94 538.261 123.09C537.241 116.15 530.571 117.7 525.631 116.58C525.071 115.49 524.641 114.43 524.361 113.4C523.861 111.54 521.581 110.89 520.231 112.26C519.621 111.72 519.181 109.81 518.751 107.9C518.441 106.51 518.131 105.12 517.771 104.24L514.331 96.4799L515.441 102.26C513.191 101.45 510.921 102.29 509.611 99.5099C507.931 95.9399 507.261 91.7599 508.481 88.0099C509.591 84.61 511.461 77.7999 513.571 72.1599C511.181 73.8899 508.311 75.1499 504.981 75.7799C506.161 73.5399 507.361 71.2599 507.861 68.7699C508.351 66.2799 508.051 63.5099 506.471 61.5299C505.171 59.8999 503.251 60.3099 501.631 58.9999C500.371 57.9799 499.281 55.37 498.521 53.9399C501.761 64.7099 504.211 76.1499 500.091 86.4299C497.241 93.5499 491.241 99.3399 484.041 101.97C487.871 99.2299 491.611 96.3099 494.481 92.5899C497.551 88.5999 499.551 83.5599 498.941 78.5599C497.981 70.7099 483.421 45.8799 481.631 40.9999C482.611 45.7699 482.231 49.4899 479.651 51.5399C478.981 44.62 471.441 45.2499 467.331 42.4799C467.331 42.4799 464.151 24.5099 471.611 24.3999C475.211 24.3499 478.981 15.8899 482.251 14.3799C487.471 11.9699 490.671 13.6099 496.461 13.7899C502.241 13.9599 507.791 16.4499 511.321 21.0199C513.171 23.4099 513.851 21.5099 516.631 22.9999C519.271 24.4099 521.051 23.0999 524.041 23.1899C530.031 23.3499 535.841 26.5499 539.201 31.4999C542.561 36.4599 544.631 35.9999 543.301 43.6699C543.281 43.7599 543.281 43.9399 543.301 44.2099C544.031 56.2899 542.161 68.3999 537.371 79.5199C535.891 82.9399 543.13 86.4697 543.12 90.7398C543.11 95.6998 535.121 100.22 535.861 102.34C537.981 112.55 549.891 110.28 547.081 127.37C546.851 128.76 550.771 131.81 550.331 133.48Z" fill="#222222"/>
<path d="M477.378 102.211C477.598 102.141 477.818 102.061 478.038 101.971C477.758 102.171 477.488 102.361 477.208 102.561L477.378 102.211Z" fill="#014D44"/>
<path d="M514.47 17.9603C511.606 18.386 508.696 13.6334 510.322 7.04272C513.867 12.4623 515.678 18.5634 515.963 25.2649L514.053 25.8567L514.47 17.9603Z" fill="#FA2606"/>
<path d="M529.106 11.8085C527.151 18.7351 517.224 23.3708 515.47 20.9602L515.27 25.0909L514.043 23.512C517.603 18.2176 522.456 14.1561 529.106 11.8085Z" fill="#FA2606"/>
<path d="M311.121 198.594C311.121 196.292 312.993 194.42 315.295 194.42H382.38C384.681 194.42 386.554 196.292 386.554 198.594C386.554 200.895 384.681 202.768 382.38 202.768H315.295C312.993 202.768 311.121 200.895 311.121 198.594Z" fill="#E6E7E8"/>
<path d="M311.121 226.594C311.121 224.292 312.993 222.42 315.295 222.42H382.38C384.681 222.42 386.554 224.292 386.554 226.594C386.554 228.895 384.681 230.768 382.38 230.768H315.295C312.993 230.768 311.121 228.895 311.121 226.594Z" fill="#E6E7E8"/>
<path d="M262.941 216.895C260.64 216.895 258.768 215.022 258.768 212.721C258.768 210.42 260.64 208.547 262.941 208.547H382.38C384.681 208.547 386.554 210.42 386.554 212.721C386.554 215.022 384.681 216.895 382.38 216.895H262.941Z" fill="#E6E7E8"/>
<path d="M254.062 176.947L245.832 173.048C249.208 177.759 252.116 185.117 253.673 190.971C256.31 185.518 260.56 178.845 264.767 174.859L256.069 177.097C261.429 150.829 281.588 131.971 304.673 131.971V129.971C280.56 129.971 259.534 149.619 254.062 176.947Z" fill="#222222"/>
<path d="M291.941 216.971H239.941C237.736 216.971 235.941 215.177 235.941 212.971C235.941 210.765 237.736 208.971 239.941 208.971H291.941C294.147 208.971 295.941 210.765 295.941 212.971C295.941 215.177 294.147 216.971 291.941 216.971Z" fill="#FA2606"/>
<path d="M307.129 135.165C308.514 126.63 302.717 118.587 294.181 117.202C285.646 115.817 277.603 121.614 276.218 130.149C274.833 138.685 280.63 146.727 289.165 148.113C297.701 149.498 305.743 143.701 307.129 135.165Z" fill="#222222"/>
<path d="M206.673 19.3147C212.007 19.3147 216.331 14.991 216.331 9.65737C216.331 4.32375 212.007 0 206.673 0C201.34 0 197.016 4.32375 197.016 9.65737C197.016 14.991 201.34 19.3147 206.673 19.3147Z" fill="#E6E7E8"/>
<path d="M319.673 186.315C325.007 186.315 329.331 181.991 329.331 176.657C329.331 171.324 325.007 167 319.673 167C314.34 167 310.016 171.324 310.016 176.657C310.016 181.991 314.34 186.315 319.673 186.315Z" fill="#E6E7E8"/>
</g>
<defs>
<clipPath id="clip0_1_2">
<rect width="552.941" height="367.921" fill="white"/>
</clipPath>
</defs>
</svg>
